X: 100438
T: THE OLD TOON OF BROXBURN REEL
C: By Wm. Findlay
R: reel
B: K\"ohler's Violin Repository, v.3, 1885 p.277 #1
F: http://www.archive.org/details/klersviolinrepos03rugg
Z: 2012 John Chambers <jc:trillian.mit.edu>
M: C
L: 1/8
K: D
uA |\
d2dA (GF)ED | (df)eg (fd)cA | (df)af (ge)cA | dBAF D2(DA) |\
d2dA (GF)ED | (df)eg (fd)cA | (df)af (bg)ed | cABc d2(d |]
f) |\
(ab)af (gf)ed | gefd cABc | (df)af (eg)bg | faef dcBA |\
(df)af (gf)ed | (ge)fd (cA)Bc | dfeg fagb | agfe d2(d |]

%%sep 2 1 500

